X:1
T:Michael Ryan's
M:3/4
R:Waltz
K:G
DGA|B2B2ce|d2d2gf|e2 eg fe|d3 D GA|
B2 B2 ce|d2de cA|G2 GB AF| G3:
|:BA B|c2 cd cB|A2A2Bc|D2de dc|B2 B2 gf|
e2 eg fe|d2 dB GA|B2Bc AF|G3:
